X:5850
T:Scotsman over the Border, The
O:england
R:jig
N:Related to The Carraroe Jig, #181
D:Music at Matt Molloy's.
D:Noel Hill & Tony Linnane.
D:Molloy, Peoples, Brady.
M:6/8
L:1/8
K:D
DED FDF|AFA d2A|~B3 BAB|dgf edB|
ADD FDF|AFA d2A|~B3 AFA|dAF ~E3:|
|:dfa afa|bag fef|dfa afe|def edB|
dfa afa|bag fed|B2B AFA|dAF ~E3:|


